X:97
T:Phil Ormond. LIT.097
T:Through the Wood Laddie,aka. LIT.097
M:3/4
Q:1/4=125
L:1/8
B:Wm. Litten MS, 1802
Z:Village Music Project 2017 Anne Wride
K:F
FC | D2F2 GF/G/ | A4 fg | ag fd cA | G4 FG |
AG AB AG | A2 GF/G/ FG | AG AB dc | A2 GF FC |
D2 F2 GF/G/| A4 fg | ag fd cA | G4 AB |
d2 fd cA | cd cB AG | A2D2 E/F/G/A/ | F4 :|
|: fc | d2f2 gf/g/ | a4 fg | a2 ba gf | g4 fg |
ag ab ag | a2gf fg | ag ab d'c' | a2 gf fc |
d2f2 gf/g/ | a4 fg | ag fd cA | G4 Ac |
d2fd cA | cd cB AG | A2D2 E/F/G/A/ | F4 :|

